X:1
T:Pray, Pray
T:Charles Hutchinson Gabriel
T:Pray, Pray
T:Public Domain
T:Public Domain
C:Charles Hutchinson Gabriel
Z:Public Domain
%%score ( 1 2 ) ( 3 4 )
L:1/8
M:4/4
K:Ab
V:1 treble 
V:2 treble 
V:3 bass 
V:4 bass 
V:1
 [Ec]4 [Ec]3 [EB] | [FA]2 [FA]2 [FA]2 [DF]2 | [CE]2 [CA]2 [EA]2 [Ec]2 | [Ec]2 [EB]2 [EB]2 E2 | %4
w: 1.~Pray, pray, when|things go wrong, And|gloom- y fears a-|round you throng; The|
w: 2.~Pray, pray, be|calm and still, What-|ev- er comes must|be His will; His|
w: 3.~Pray, pray till|faith grows strong, And|in your heart rings|Hea- ven’s song; Till|
 [Ec]3 [Ec] [Ec]3 [EB] | [FA]2 [FA]2 [FA]2 [DF]2 | [CE]2 (Ac) [Ee]2 [EA]2 | [Ec]2 [EB]2 [CA]4 || %8
w: ing God your voice|will hear, Look up|to Him, * He’s al-|near. * *|
w: is- es like buds|un- fold, Naught that|is good * will He|hold. Pray, pray|
w: shall die in pure|de- sire, And ev-|ery thought * to Him|pire. * *|
"^Refrain" (e2 f2) [Ae]2 [Ec][EB] | [FA]2 ([FA][DF]) [CA]4 | [Ae]2 [Ae][Af] [Ae]2 [Ec]2 | %11
w: |||
w: though * your eyes grow|Go with * your|trou- bles straight to Him;|
w: |||
 [Ec]2 [EB]2 [EB]4 | [Ec]2 [Fd]2 [Ec]3 [EB] | [FA]2 ([FA][FB]) [FA]2 [DF]2 | %14
w: |||
w: Pray, pray, for|God un- der- stands;|Have faith, * leav- ing|
w: |||
 [CE]2 [EA][Ec] [Ee]2 [EA]2 | [Ec]2 [DB]2 [CA]4 |] %16
w: ||
w: all in His dear hands.||
w: ||
V:2
 x8 | x8 | x8 | x6 E2 | x8 | x8 | x2 E2 x4 | x8 || A4 x4 | x8 | x8 | x8 | x8 | x8 | x8 | x8 |] %16
w: |||lov-|||ways||||||||||
w: |||prom-|||with-||dim,||||||||
w: |||self|||as-||||||||||
V:3
 [A,,A,]4 [A,,A,]3 [C,A,] | [D,D]2 [D,D]2 [D,D]2 [D,A,]2 | [A,,A,]2 [A,,A,]2 [C,A,]2 [A,,A,]2 | %3
 [E,A,]2 [E,G,]2 [E,G,]2 [E,G,]2 | [A,,A,]3 [A,,A,] [A,,A,]3 [C,A,] | %5
 [D,D]2 [D,D]2 [D,D]2 [D,A,]2 | [A,,A,]2 (C,E,) [A,C]2 [C,A,]2 | [E,A,]2 [E,G,]2 [A,,A,]4 || %8
 (C2 D2) [A,C]2 A,[C,A,] | [D,D]2 (DA,) [A,,A,]4 | [A,C]2 [A,C][A,D] [A,C]2 A,2 | %11
 [E,A,]2 [E,G,]2 [E,G,]4 | [A,,A,]4 [A,,A,]3 [C,A,] | [D,D]2 ([D,D][D,D]) [D,D]2 [D,A,]2 | %14
 [A,,A,]2 [C,A,][E,A,] [A,C]2 [C,A,]2 | [E,A,]2 [E,G,]2 [A,,A,]4 |] %16
V:4
 x8 | x8 | x8 | x8 | x8 | x8 | x2 A,2 x4 | x8 || A,4 A, x3 | x2 D,2 x4 | x6 A,2 | x8 | x8 | x8 | %14
 x8 | x8 |] %16

